Yaru++/mimetypes/48/application-x-ruby.svg

<svg height="48" viewBox="0 0 12.699375 12.699375" width="48" xmlns="http://www.w3.org/2000/svg" xmlns:xlink="http://www.w3.org/1999/xlink"><linearGradient id="a" gradientUnits="userSpaceOnUse" x1="344" x2="344" y1="62" y2="106"><stop offset="0" stop-color="#fff"/><stop offset=".125" stop-color="#fff" stop-opacity=".098039"/><stop offset=".92500001" stop-color="#fff" stop-opacity=".098039"/><stop offset="1" stop-color="#fff" stop-opacity=".498039"/></linearGradient><clipPath id="b"><path d="m335.73108 62c-8.82418 0-9.77365.90635-9.7304 9.74838v12.25162 12.25162c-.0433 8.84203.90622 9.74838 9.7304 9.74838h16.53919c8.82418 0 9.7304-.90625 9.7304-9.74838v-12.25162-12.25162c0-8.84213-.90622-9.74838-9.7304-9.74838z"/></clipPath><linearGradient id="c" gradientTransform="matrix(0 -.02997086 .02997 0 -3.039509 13.625372)" gradientUnits="userSpaceOnUse" x1="459.03448" x2="35.310345" y1="419.23337" y2="207.36522"><stop offset="0" stop-color="#f2f2f2"/><stop offset="1" stop-color="#f9f9f9"/></linearGradient><path d="m4.1621981.39685569c-.5881821 0-1.0513178.0135407-1.4323995.0775109-.3810845.0639689-.6929229.18395548-.9213476.41184073-.2284221.22788558-.3489841.53958348-.4123566.92082878-.0633725.3812455-.0757438.8453923-.07286 1.4349838v3.2399529 3.241503c-.00286.5886852.00955 1.0525972.07286 1.4334342.063373.381246.1839345.692944.4123566.920829.2284247.227885.5402631.347873.9213476.411841.3810844.06397.8442174.07751 1.4323995.07751h4.3757443c.5881821 0 1.0510744-.01352 1.4313677-.07751.3802939-.064.6911799-.18439.9187599-.412357.227584-.227967.347434-.539443.411325-.920313.06389-.380869.07751-.844074.07751-1.4334342v-3.241503-3.241503c0-.5893606-.01363-1.0525644-.07751-1.4334337-.063891-.3808691-.183741-.6923443-.411325-.92031207-.22758-.22796754-.538466-.34836079-.9187599-.41235744-.3802933-.06399691-.8431856-.0775109-1.4313677-.0775109z" opacity=".1"/><path d="m4.1623595.39685569c-2.334616 0-2.5858176.23979331-2.5743749 2.57913191v3.2414149 3.2414149c-.011456 2.3393396.2397589 2.5791326 2.5743749 2.5791326h4.3757787c2.3346158 0 2.5743748-.239767 2.5743748-2.5791326v-3.2414149-3.2414149c0-2.33936506-.239759-2.57913191-2.5743748-2.57913191z" fill="none" opacity=".2" stroke="#000" stroke-width=".529141"/><path d="m4.1623595.39685569c-2.334616 0-2.5858176.23979331-2.5743749 2.57913191v3.2414149 3.2414149c-.011456 2.3393396.2397589 2.5791326 2.5743749 2.5791326h4.3757787c2.3346158 0 2.5743748-.239767 2.5743748-2.5791326v-3.2414149-3.2414149c0-2.33936506-.239759-2.57913191-2.5743748-2.57913191z" fill="url(#c)"/><path d="m8.4666301 4.10084 1.0582813 1.5874219h-1.7638003zm-.2822462 0-.5996539 1.3845015-.9082435-1.3845015zm-1.8343136 0 1.0582812 1.5874219h-2.1165625zm-.3352291 0-.8994333 1.3756873-.5732603-1.3756873zm-1.7813334 0 .705519 1.5874219h-1.7638003zm5.2914036 1.8519922-2.9984627 3.5276041 1.2346624-3.5276041zm-2.1165599 0-1.0582812 3.1748435-1.0582813-3.1748435zm-2.4693247 0 1.2346624 3.5276041-2.9984627-3.5276041z" fill="#f44336" fill-rule="evenodd"/><path d="m1.5878047 6.2174025v3.241503c-.011456 2.3393385.2397774 2.5790445 2.5743934 2.5790445h4.3757443c2.3346166 0 2.5743936-.239679 2.5743936-2.5790445v-3.241503z" fill="#fff" opacity=".1"/><path d="m6.3500703.39685569v11.64109431h2.1878721c2.3346166 0 2.5743936-.239679 2.5743936-2.5790445v-3.241503-3.241503c0-2.33936506-.239777-2.57904381-2.5743936-2.57904381z" fill="#fff" opacity=".1"/><path clip-path="url(#b)" d="m335.73108 62c-8.82418 0-9.77365.90635-9.7304 9.74838v12.25162 12.25162c-.0433 8.84203.90622 9.74838 9.7304 9.74838h16.53919c8.82418 0 9.7304-.90625 9.7304-9.74838v-12.25162-12.25162c0-8.84213-.90622-9.74838-9.7304-9.74838z" fill="none" opacity=".4" stroke="url(#a)" stroke-width="2" transform="matrix(.26457031 0 0 .26457031 -84.662116 -16.006503)"/></svg>

<?xml version="1.0" encoding="UTF-8" standalone="no"?>
<svg
   xmlns:dc="http://purl.org/dc/elements/1.1/"
   xmlns:cc="http://creativecommons.org/ns#"
   xmlns:rdf="http://www.w3.org/1999/02/22-rdf-syntax-ns#"
   xmlns:svg="http://www.w3.org/2000/svg"
   xmlns="http://www.w3.org/2000/svg"
   xmlns:xlink="http://www.w3.org/1999/xlink"
   xmlns:sodipodi="http://sodipodi.sourceforge.net/DTD/sodipodi-0.dtd"
   xmlns:inkscape="http://www.inkscape.org/namespaces/inkscape"
   width="48"
   height="48"
   version="1.1"
   viewBox="0 0 12.699375 12.699375"
   id="svg49"
   sodipodi:docname="application-x-ruby.svg"
   inkscape:version="0.92.4 (5da689c313, 2019-01-14)">
  <metadata
     id="metadata53">
    <rdf:RDF>
      <cc:Work
         rdf:about="">
        <dc:format>image/svg+xml</dc:format>
        <dc:type
           rdf:resource="http://purl.org/dc/dcmitype/StillImage" />
        <dc:title></dc:title>
      </cc:Work>
    </rdf:RDF>
  </metadata>
  <sodipodi:namedview
     pagecolor="#ffffff"
     bordercolor="#666666"
     borderopacity="1"
     objecttolerance="10"
     gridtolerance="10"
     guidetolerance="10"
     inkscape:pageopacity="0"
     inkscape:pageshadow="2"
     inkscape:window-width="1420"
     inkscape:window-height="960"
     id="namedview51"
     showgrid="false"
     inkscape:zoom="16.3125"
     inkscape:cx="12.35249"
     inkscape:cy="24"
     inkscape:window-x="68"
     inkscape:window-y="83"
     inkscape:window-maximized="0"
     inkscape:current-layer="svg49" />
  <defs
     id="defs17">
    <linearGradient
       id="linearGradient4226"
       x1="529.65503"
       x2="-35.310001"
       y1="401.58401"
       y2="119.093"
       gradientTransform="matrix(0,-0.11988932,0.11988589,0,0.36278005,292.5483)"
       gradientUnits="userSpaceOnUse">
      <stop
         style="stop-color:#f2f2f2"
         offset="0"
         id="stop2" />
      <stop
         style="stop-color:#f9f9f9"
         offset="1"
         id="stop4" />
    </linearGradient>
    <linearGradient
       id="linearGradient4358"
       x1="88"
       x2="488"
       y1="88"
       y2="488"
       gradientUnits="userSpaceOnUse">
      <stop
         style="stop-color:#000000;stop-opacity:.58823532"
         offset="0"
         id="stop7" />
      <stop
         style="stop-color:#000000;stop-opacity:0"
         offset=".88"
         id="stop9" />
      <stop
         style="stop-color:#000000"
         offset="1"
         id="stop11" />
    </linearGradient>
    <filter
       id="filter4346"
       width="1.026"
       height="1.022"
       x="-0.0099999998"
       y="-0.0099999998"
       style="color-interpolation-filters:sRGB">
      <feGaussianBlur
         stdDeviation="2.12"
         id="feGaussianBlur14" />
    </filter>
    <clipPath
       clipPathUnits="userSpaceOnUse"
       id="clipPath994">
      <path
         style="color:#000000;display:inline;overflow:visible;visibility:visible;fill:#cdcdcd;fill-opacity:1;fill-rule:nonzero;stroke:none;stroke-width:2;stroke-miterlimit:4;stroke-dasharray:none;stroke-opacity:1;marker:none;enable-background:accumulate"
         d="m 335.73108,62 c -8.82418,0 -9.77365,0.90635 -9.7304,9.74838 V 84 96.25162 c -0.0433,8.84203 0.90622,9.74838 9.7304,9.74838 h 16.53919 c 8.82418,0 9.7304,-0.90625 9.7304,-9.74838 V 84 71.74838 C 362.00067,62.90625 361.09445,62 352.27027,62 Z"
         id="path996"
         inkscape:connector-curvature="0"
         sodipodi:nodetypes="scccssscsss" />
    </clipPath>
    <linearGradient
       inkscape:collect="always"
       xlink:href="#linearGradient927"
       id="linearGradient1004"
       x1="344"
       y1="62"
       x2="344"
       y2="106"
       gradientUnits="userSpaceOnUse" />
    <linearGradient
       inkscape:collect="always"
       id="linearGradient927">
      <stop
         style="stop-color:#ffffff;stop-opacity:1;"
         offset="0"
         id="stop923" />
      <stop
         id="stop933"
         offset="0.125"
         style="stop-color:#ffffff;stop-opacity:0.09803922" />
      <stop
         id="stop931"
         offset="0.92500001"
         style="stop-color:#ffffff;stop-opacity:0.09803922" />
      <stop
         style="stop-color:#ffffff;stop-opacity:0.49803922"
         offset="1"
         id="stop925" />
    </linearGradient>
    <clipPath
       clipPathUnits="userSpaceOnUse"
       id="clipPath994-3">
      <path
         style="color:#000000;display:inline;overflow:visible;visibility:visible;fill:#cdcdcd;fill-opacity:1;fill-rule:nonzero;stroke:none;stroke-width:2;stroke-miterlimit:4;stroke-dasharray:none;stroke-opacity:1;marker:none;enable-background:accumulate"
         d="m 335.73108,62 c -8.82418,0 -9.77365,0.90635 -9.7304,9.74838 V 84 96.25162 c -0.0433,8.84203 0.90622,9.74838 9.7304,9.74838 h 16.53919 c 8.82418,0 9.7304,-0.90625 9.7304,-9.74838 V 84 71.74838 C 362.00067,62.90625 361.09445,62 352.27027,62 Z"
         id="path996-6"
         inkscape:connector-curvature="0"
         sodipodi:nodetypes="scccssscsss" />
    </clipPath>
    <linearGradient
       inkscape:collect="always"
       xlink:href="#linearGradient4338"
       id="linearGradient1024"
       gradientUnits="userSpaceOnUse"
       gradientTransform="matrix(0,-0.02997086,0.02997,0,-3.0395089,13.625372)"
       x1="459.03448"
       y1="419.23337"
       x2="35.310345"
       y2="207.36522" />
    <linearGradient
       inkscape:collect="always"
       id="linearGradient4338">
      <stop
         style="stop-color:#f2f2f2;stop-opacity:1"
         offset="0"
         id="stop4340" />
      <stop
         style="stop-color:#f9f9f9;stop-opacity:1"
         offset="1"
         id="stop4342" />
    </linearGradient>
  </defs>
  <path
     style="color:#000000;font-style:normal;font-variant:normal;font-weight:normal;font-stretch:normal;font-size:medium;line-height:normal;font-family:sans-serif;font-variant-ligatures:normal;font-variant-position:normal;font-variant-caps:normal;font-variant-numeric:normal;font-variant-alternates:normal;font-feature-settings:normal;text-indent:0;text-align:start;text-decoration:none;text-decoration-line:none;text-decoration-style:solid;text-decoration-color:#000000;letter-spacing:normal;word-spacing:normal;text-transform:none;writing-mode:lr-tb;direction:ltr;text-orientation:mixed;dominant-baseline:auto;baseline-shift:baseline;text-anchor:start;white-space:normal;shape-padding:0;clip-rule:nonzero;display:inline;overflow:visible;visibility:visible;opacity:0.1;isolation:auto;mix-blend-mode:normal;color-interpolation:sRGB;color-interpolation-filters:linearRGB;solid-color:#000000;solid-opacity:1;vector-effect:none;fill:#000000;fill-opacity:1;fill-rule:nonzero;stroke:none;stroke-width:0.52914065;stroke-linecap:butt;stroke-linejoin:miter;stroke-miterlimit:4;stroke-dasharray:none;stroke-dashoffset:0;stroke-opacity:1;marker:none;color-rendering:auto;image-rendering:auto;shape-rendering:auto;text-rendering:auto;enable-background:accumulate"
     d="m 4.1621981,0.39685569 c -0.5881821,0 -1.0513178,0.0135407 -1.4323995,0.0775109 C 2.3487141,0.53833549 2.0368757,0.65832207 1.808451,0.88620732 1.5800289,1.1140929 1.4594669,1.4257908 1.3960944,1.8070361 1.3327219,2.1882816 1.3203506,2.6524284 1.3232344,3.2420199 v 3.2399529 3.241503 c -0.00286,0.5886852 0.00955,1.0525972 0.07286,1.4334342 0.063373,0.381246 0.1839345,0.692944 0.4123566,0.920829 0.2284247,0.227885 0.5402631,0.347873 0.9213476,0.411841 0.3810844,0.06397 0.8442174,0.07751 1.4323995,0.07751 h 4.3757443 c 0.5881821,0 1.0510744,-0.01352 1.4313677,-0.07751 0.3802939,-0.064 0.6911799,-0.18439 0.9187599,-0.412357 0.227584,-0.227967 0.347434,-0.539443 0.411325,-0.920313 0.06389,-0.380869 0.07751,-0.844074 0.07751,-1.4334342 v -3.241503 -3.241503 c 0,-0.5893606 -0.01363,-1.0525644 -0.07751,-1.4334337 C 11.235504,1.426167 11.115654,1.1146918 10.88807,0.88672403 10.66049,0.65875649 10.349604,0.53836324 9.9693101,0.47436659 9.5890168,0.41036968 9.1261245,0.39685569 8.5379424,0.39685569 Z"
     id="path1020"
     inkscape:connector-curvature="0"
     sodipodi:nodetypes="sccsccccccsscccscsccsss" />
  <path
     style="color:#000000;display:inline;overflow:visible;visibility:visible;opacity:0.2;fill:none;fill-opacity:1;fill-rule:nonzero;stroke:#000000;stroke-width:0.52914065;stroke-miterlimit:4;stroke-dasharray:none;stroke-opacity:1;marker:none;enable-background:accumulate"
     d="m 4.1623595,0.39685569 c -2.334616,0 -2.5858176,0.23979331 -2.5743749,2.57913191 V 6.2174025 9.4588174 C 1.5765286,11.798157 1.8277435,12.03795 4.1623595,12.03795 h 4.3757787 c 2.3346158,0 2.5743748,-0.239767 2.5743748,-2.5791326 V 6.2174025 2.9759876 c 0,-2.33936506 -0.239759,-2.57913191 -2.5743748,-2.57913191 z"
     id="path958"
     inkscape:connector-curvature="0"
     sodipodi:nodetypes="scccssscsss" />
  <path
     style="color:#000000;display:inline;overflow:visible;visibility:visible;fill:url(#linearGradient1024);fill-opacity:1;fill-rule:nonzero;stroke:none;stroke-width:0.26457033;marker:none;enable-background:accumulate"
     d="m 4.1623595,0.39685569 c -2.334616,0 -2.5858176,0.23979331 -2.5743749,2.57913191 V 6.2174025 9.4588174 C 1.5765286,11.798157 1.8277435,12.03795 4.1623595,12.03795 h 4.3757787 c 2.3346158,0 2.5743748,-0.239767 2.5743748,-2.5791326 V 6.2174025 2.9759876 c 0,-2.33936506 -0.239759,-2.57913191 -2.5743748,-2.57913191 z"
     id="path964"
     inkscape:connector-curvature="0"
     sodipodi:nodetypes="scccssscsss" />
  <path
     inkscape:connector-curvature="0"
     id="path4780"
     d="M 8.4666301,4.10084 9.5249114,5.6882619 H 7.7611111 Z m -0.2822462,0 L 7.58473,5.4853415 6.6764865,4.10084 Z m -1.8343136,0 1.0582812,1.5874219 H 5.291789 Z m -0.3352291,0 L 5.1154079,5.4765273 4.5421476,4.10084 Z m -1.7813334,0 0.705519,1.5874219 H 3.1752265 Z M 9.5249114,5.9528322 6.5264487,9.4804363 7.7611111,5.9528322 Z m -2.1165599,0 L 6.3500703,9.1276757 5.291789,5.9528322 Z m -2.4693247,0 1.2346624,3.5276041 -2.9984627,-3.5276041 z"
     style="display:inline;fill:#f44336;fill-opacity:1;fill-rule:evenodd;stroke:none;stroke-width:0.26457033px;stroke-linecap:butt;stroke-linejoin:miter;stroke-opacity:1;enable-background:new"
     sodipodi:nodetypes="cccccccccccccccccccccccccccccccc" />
  <path
     style="color:#000000;display:inline;overflow:visible;visibility:visible;opacity:0.1;fill:#ffffff;fill-opacity:1;fill-rule:nonzero;stroke:none;stroke-width:0.26457033;marker:none;enable-background:accumulate"
     d="m 1.5878047,6.2174025 v 3.241503 C 1.5763487,11.798244 1.8275821,12.03795 4.1621981,12.03795 h 4.3757443 c 2.3346166,0 2.5743936,-0.239679 2.5743936,-2.5790445 v -3.241503 z"
     id="path1006"
     inkscape:connector-curvature="0" />
  <path
     style="color:#000000;display:inline;overflow:visible;visibility:visible;opacity:0.1;fill:#ffffff;fill-opacity:1;fill-rule:nonzero;stroke:none;stroke-width:0.26457033;marker:none;enable-background:accumulate"
     d="M 6.3500703,0.39685569 V 12.03795 h 2.1878721 c 2.3346166,0 2.5743936,-0.239679 2.5743936,-2.5790445 v -3.241503 -3.241503 c 0,-2.33936506 -0.239777,-2.57904381 -2.5743936,-2.57904381 z"
     id="path1013"
     inkscape:connector-curvature="0" />
  <path
     transform="matrix(0.26457031,0,0,0.26457031,-84.662116,-16.006503)"
     sodipodi:nodetypes="scccssscsss"
     inkscape:connector-curvature="0"
     id="path990"
     d="m 335.73108,62 c -8.82418,0 -9.77365,0.90635 -9.7304,9.74838 V 84 96.25162 c -0.0433,8.84203 0.90622,9.74838 9.7304,9.74838 h 16.53919 c 8.82418,0 9.7304,-0.90625 9.7304,-9.74838 V 84 71.74838 C 362.00067,62.90625 361.09445,62 352.27027,62 Z"
     style="color:#000000;display:inline;overflow:visible;visibility:visible;opacity:0.4;fill:none;fill-opacity:1;fill-rule:nonzero;stroke:url(#linearGradient1004);stroke-width:2;stroke-miterlimit:4;stroke-dasharray:none;stroke-opacity:1;marker:none;enable-background:accumulate"
     clip-path="url(#clipPath994-3)" />
</svg>
